X:1
T:Title
%%score ( 1 2 ) ( 3 4 )
L:1/8
Q:1/4=110
M:4/4
K:Bb
V:1 treble nm="Strings 1, Treble"
V:2 treble 
V:3 bass nm="Strings 1, Bass"
V:4 bass 
V:1
 z4 z2 [B,D][CE] | [DF]3 [DF] [EG][DF][B,D][DF] | [Fd]6 [Fd][Fc] | [GB]3 [GB] cBAG | %4
w: 1.~Are~ you~|read y,~ wait ing~ for~ the~|Lord?~ See,~ the~|signs~ pro claim~ * Him~ *|
 [DF]6 [B,D][CE] | [DF]3 [DF] [EG][DF][B,D][DF] | [Fd]6 [Fc][Fd] | [Fe]3 [Fc] [FB]2 [Fd].[Ec] | %8
w: near,~ In~ the~|aw ful~ thun ders~ of~ His~|word,~ Now~ His~|com ing~ steps~ we~ *|
 [DB]6 [DB][FA] | [EG][EG][EG][EG] [EG][GB][FA][EG] | [EG][DF][DF][B,D] [DF]2 [B,D][CE] | %11
w: hear.~ * *|||
 [DF][DF][DF][EG] [DF][CE][B,D][DF] | [FB][FB][EA][DB] [Fc]2[Q:1/4=110] [Fd][Fc][Q:1/4=12] | %13
w: ||
 [FB][FB][FB][FB] [Gc][GB][FA][EG] | [DF][DF][B,D][CE] [DF]2 [DF]F | %15
w: ||
 [EG][EG][EG][EG] [=Ec][EB][EA][EG] | %16
w: |
 F<F [EA]>[Ec] [DB]2[Q:1/4=92] z2[Q:1/4=108][Q:1/4=107][Q:1/4=105][Q:1/4=103][Q:1/4=102][Q:1/4=100][Q:1/4=99][Q:1/4=97][Q:1/4=95][Q:1/4=94][Q:1/4=92][Q:1/4=12] |] %17
w: |
V:2
 x8 | x8 | x8 | z4 E2 E2 | x8 | x8 | x8 | x8 | x8 | x8 | x8 | x8 | x8 | x8 | x8 | x8 | x8 |] %17
V:3
 z4 z2 [B,,F,][B,,F,] | [B,,B,]3 [B,,B,] [B,,B,][B,,B,][B,,F,][B,,B,] | [B,,B,]6 [B,,B,][D,B,] | %3
 [E,B,]3 [E,B,] [E,G,]2 [E,B,]2 | [B,,B,]6 [B,,F,][B,,F,] | %5
 [B,,B,]3 [B,,B,] [B,,B,][B,,B,][B,,F,][B,,B,] | [B,,B,]6 [F,A,][F,B,] | [F,C]3 [F,E] [F,D]2 B,A, | %8
 [B,,B,]6 [B,,B,][D,B,] | [E,B,][E,B,][E,B,][E,B,] [E,B,][E,B,][E,B,][E,B,] | %10
 [B,,B,][B,,B,][B,,B,][B,,F,] [B,,B,]2 [B,,F,][B,,F,] | %11
 [B,,B,][B,,B,][B,,B,][B,,B,] [B,,B,][B,,F,][B,,F,][B,,B,] | %12
 [D,B,][D,B,][C,F,][B,,B,] [F,A,]2 [B,,B,][C,A,] | %13
 [D,B,][D,B,][D,B,][D,B,] [E,B,][E,B,][E,B,][E,B,] | %14
 [B,,B,][B,,B,][B,,F,][B,,F,] [B,,B,]2 [B,,B,][D,B,] | %15
 [E,B,][E,B,][E,B,][E,G,] [C,G,][C,G,][C,C][C,B,] | [F,A,]<[F,A,] [F,C]>[F,A,] [B,,B,]2 z2 |] %17
V:4
 x8 | x8 | x8 | x8 | x8 | x8 | x8 | z4 z2 F,2 | x8 | x8 | x8 | x8 | x8 | x8 | x8 | x8 | x8 |] %17

